X:31
T:Humours of Katheonra. JJo4.031, The
B:J.Johnson Choice Collection Vol 4, 1748
Z:vmp.Robert Watkins 2014 www.village-music-project.org.uk
M:9/4
L:1/4
Q:3/4=124
K:G
GBGB2GdBG|GBGBcdAFD|GBGB2GdBG|efgdcBAFA:|
|:g2ggegfed|g3gef/g/afd|gbgfafefd|efgdcBAFA:|
|:BGG/G/BGBAcA|BGG/G/BGBAFA|BGG/G/BGBABc|gfedcBAFA:|

